svgs/regular/caravan-simple.svg

<svg xmlns="http://www.w3.org/2000/svg" viewBox="0 0 640 512"><!--! Font Awesome Pro 6.3.0 by @fontawesome - https://fontawesome.com License - https://fontawesome.com/license (Commercial License) Copyright 2023 Fonticons, Inc. --><path d="M80 80c-17.7 0-32 14.3-32 32V336c0 17.7 14.3 32 32 32h28.8c16.6-28.7 47.6-48 83.2-48s66.6 19.3 83.2 48H528V192c0-61.9-50.1-112-112-112H80zM96 416H80c-44.2 0-80-35.8-80-80V112C0 67.8 35.8 32 80 32H416c88.4 0 160 71.6 160 160V368l40 0c13.3 0 24 10.7 24 24s-10.7 24-24 24l-40 0H528 288c0 53-43 96-96 96s-96-43-96-96zm0-256c0-17.7 14.3-32 32-32H256c17.7 0 32 14.3 32 32v64c0 17.7-14.3 32-32 32H128c-17.7 0-32-14.3-32-32V160zm256-32h64c17.7 0 32 14.3 32 32v64c0 17.7-14.3 32-32 32H352c-17.7 0-32-14.3-32-32V160c0-17.7 14.3-32 32-32zM240 416a48 48 0 1 0 -96 0 48 48 0 1 0 96 0z"/></svg>

<svg xmlns="http://www.w3.org/2000/svg" viewBox="0 0 640 512"><!--! Font Awesome Pro 6.2.0 by @fontawesome - https://fontawesome.com License - https://fontawesome.com/license (Commercial License) Copyright 2022 Fonticons, Inc. --><path d="M96 160C96 142.3 110.3 128 128 128H256C273.7 128 288 142.3 288 160V224C288 241.7 273.7 256 256 256H128C110.3 256 96 241.7 96 224V160zM416 128C433.7 128 448 142.3 448 160V224C448 241.7 433.7 256 416 256H352C334.3 256 320 241.7 320 224V160C320 142.3 334.3 128 352 128H416zM96 416H80C35.82 416 0 380.2 0 336V112C0 67.82 35.82 32 80 32H416C504.4 32 576 103.6 576 192V368H616C629.3 368 640 378.7 640 392C640 405.3 629.3 416 616 416H288C288 469 245 512 192 512C138.1 512 96 469 96 416zM48 112V336C48 353.7 62.33 368 80 368H108.8C125.4 339.3 156.5 320 192 320C227.5 320 258.6 339.3 275.2 368H528V192C528 130.1 477.9 80 416 80H80C62.33 80 48 94.33 48 112zM192 368C165.5 368 144 389.5 144 416C144 442.5 165.5 464 192 464C218.5 464 240 442.5 240 416C240 389.5 218.5 368 192 368z"/></svg>
